svg/搜索助手.svg

<svg width="120" height="119" viewBox="0 0 120 119" fill="none" xmlns="http://www.w3.org/2000/svg">
<rect width="120" height="119" fill="#F5F5F5"/>
<g clip-path="url(#clip0_0_1)">
<rect width="1440" height="1024" transform="translate(-878 -230)" fill="url(#paint0_linear_0_1)"/>
<rect width="1440" height="1024" transform="translate(-878 -230)" fill="white"/>
<rect width="120" height="119" rx="30" fill="url(#paint1_linear_0_1)"/>
<path d="M98.0981 61.4772C98.0981 64.6407 97.2154 67.7049 95.3113 70.2634C93.0204 73.3277 89.4898 75.4597 85.8105 76.3919C83.8766 76.8778 81.9823 76.8382 80.0088 76.8382C78.9873 76.8382 78.3129 75.8068 78.6799 74.8548C80.7923 69.2519 80.1476 62.4689 76.7658 57.4511C69.7443 45.7891 51.1989 45.8089 44.1774 57.4511C40.7956 62.4491 40.1609 69.2618 42.2633 74.8548C42.6204 75.8167 41.9559 76.8382 40.9344 76.8382H37.027C21.4395 76.9979 17.691 55.8223 30.698 49.9934C32.0028 49.4086 32.9042 48.1285 33.1456 46.7193C34.1895 40.6254 40.5668 36.4251 46.6489 37.4964C48.143 37.7595 49.7529 37.2677 50.7221 36.1004C60.1676 24.7248 81.3901 29.4028 84.6079 44.0031C84.9053 45.3523 85.9289 46.4589 87.2461 46.8756C93.5474 48.869 98.0981 54.653 98.0981 61.4772Z" fill="url(#paint2_linear_0_1)" stroke="url(#paint3_linear_0_1)"/>
<path opacity="0.8" d="M80.908 84.1498L74.0609 77.2076C75.7302 74.6606 76.7055 71.6173 76.7055 68.3454C76.7055 59.3851 69.4263 52.1229 60.4452 52.1229C51.464 52.1229 44.1849 59.3851 44.1849 68.3454C44.1849 77.3056 51.464 84.5678 60.4452 84.5678C63.5545 84.5678 66.4609 83.6927 68.9353 82.1841L75.8087 89.1524C76.5091 89.8643 77.4321 90.2169 78.3616 90.2169C79.2911 90.2169 80.1749 89.8773 80.8688 89.1916C82.2762 87.8071 82.2958 85.5474 80.908 84.1433V84.1498ZM60.4452 80.4665C53.7486 80.4665 48.3024 75.0329 48.3024 68.3519C48.3024 61.6709 53.7486 56.2373 60.4452 56.2373C67.1418 56.2373 72.5881 61.6709 72.5881 68.3519C72.5881 75.0329 67.1418 80.4665 60.4452 80.4665Z" fill="url(#paint4_linear_0_1)"/>
<path opacity="0.8" d="M50.4769 68.5428C50.4769 63.0491 54.6566 58.3625 60.0804 58.3625C60.9949 58.3625 61.7362 59.0976 61.7362 60.0045C61.7362 60.9113 60.9949 61.6465 60.0804 61.6465C56.7301 61.6465 53.7885 64.6103 53.7885 68.5428C53.7885 69.4496 53.0471 70.1848 52.1327 70.1848C51.2182 70.1848 50.4769 69.4496 50.4769 68.5428Z" fill="url(#paint5_linear_0_1)"/>
</g>
<defs>
<linearGradient id="paint0_linear_0_1" x1="19" y1="19.5" x2="1412.5" y2="1024" gradientUnits="userSpaceOnUse">
<stop stop-color="#2E7EEA"/>
<stop offset="1" stop-color="#013F92"/>
</linearGradient>
<linearGradient id="paint1_linear_0_1" x1="60" y1="5.13603e-05" x2="60" y2="119" gradientUnits="userSpaceOnUse">
<stop stop-color="#FCA681"/>
<stop offset="1" stop-color="#FD6865"/>
</linearGradient>
<linearGradient id="paint2_linear_0_1" x1="60.454" y1="29.75" x2="60.454" y2="76.8391" gradientUnits="userSpaceOnUse">
<stop offset="0.238064" stop-color="#FFEFEF"/>
<stop offset="1" stop-color="#FFC4B5"/>
</linearGradient>
<linearGradient id="paint3_linear_0_1" x1="60.454" y1="29.75" x2="60.454" y2="76.8391" gradientUnits="userSpaceOnUse">
<stop offset="0.0961538" stop-color="white"/>
<stop offset="1" stop-color="#FF7A56"/>
</linearGradient>
<linearGradient id="paint4_linear_0_1" x1="63.0608" y1="52.1229" x2="63.0608" y2="90.2169" gradientUnits="userSpaceOnUse">
<stop stop-color="white"/>
<stop offset="1" stop-color="#FFE9B9"/>
</linearGradient>
<linearGradient id="paint5_linear_0_1" x1="56.1066" y1="58.3625" x2="56.1066" y2="70.1848" gradientUnits="userSpaceOnUse">
<stop stop-color="white"/>
<stop offset="1" stop-color="#FFE9B9"/>
</linearGradient>
<clipPath id="clip0_0_1">
<rect width="1440" height="1024" fill="white" transform="translate(-878 -230)"/>
</clipPath>
</defs>
</svg>

<svg fill="none" viewBox="0 0 120 119"><path fill="#F5F5F5" d="M0 0h120v119H0z"/><g clipPath="url(#a)"><path fill="white" d="M-878-230H562V794H-878z"/><rect width="120" height="119" fill="url(#c)" rx="30"/><path fill="url(#d)" stroke="url(#e)" d="M98.098 61.477c0 3.164-.883 6.228-2.787 8.786-2.29 3.065-5.821 5.197-9.5 6.129-1.934.486-3.829.446-5.802.446-1.022 0-1.696-1.031-1.33-1.983 2.113-5.603 1.469-12.386-1.913-17.404-7.022-11.662-25.567-11.642-32.589 0-3.381 4.998-4.016 11.81-1.914 17.404.357.962-.307 1.983-1.329 1.983h-3.907c-15.588.16-19.336-21.016-6.329-26.845 1.305-.584 2.206-1.864 2.448-3.274 1.044-6.094 7.42-10.294 13.503-9.223 1.494.264 3.104-.228 4.073-1.396 9.446-11.375 30.668-6.697 33.886 7.903a3.93 3.93 0 0 0 2.638 2.873c6.301 1.993 10.852 7.777 10.852 14.601Z"/><path fill="url(#f)" d="m80.908 84.15-6.847-6.942a16.1 16.1 0 0 0 2.644-8.863c0-8.96-7.279-16.222-16.26-16.222s-16.26 7.262-16.26 16.222 7.279 16.223 16.26 16.223c3.11 0 6.016-.875 8.49-2.384l6.874 6.968a3.56 3.56 0 0 0 2.553 1.065c.93 0 1.813-.34 2.507-1.025a3.563 3.563 0 0 0 .039-5.049zm-20.463-3.684c-6.696 0-12.143-5.433-12.143-12.114s5.447-12.115 12.143-12.115 12.143 5.434 12.143 12.115c0 6.68-5.446 12.114-12.143 12.114" opacity=".8"/><path fill="url(#g)" d="M50.477 68.543c0-5.494 4.18-10.18 9.603-10.18.915 0 1.656.735 1.656 1.642s-.741 1.642-1.656 1.642c-3.35 0-6.291 2.963-6.291 6.896 0 .907-.742 1.642-1.656 1.642a1.65 1.65 0 0 1-1.656-1.642" opacity=".8"/></g><defs><linearGradient id="b" x1="19" x2="1412.5" y1="19.5" y2="1024" gradientUnits="userSpaceOnUse"><stop stopColor="#2E7EEA"/><stop offset="1" stopColor="#013F92"/></linearGradient><linearGradient id="c" x1="60" x2="60" y1="0" y2="119" gradientUnits="userSpaceOnUse"><stop stopColor="#FCA681"/><stop offset="1" stopColor="#FD6865"/></linearGradient><linearGradient id="d" x1="60.454" x2="60.454" y1="29.75" y2="76.839" gradientUnits="userSpaceOnUse"><stop offset=".238" stopColor="#FFEFEF"/><stop offset="1" stopColor="#FFC4B5"/></linearGradient><linearGradient id="e" x1="60.454" x2="60.454" y1="29.75" y2="76.839" gradientUnits="userSpaceOnUse"><stop offset=".096" stopColor="white"/><stop offset="1" stopColor="#FF7A56"/></linearGradient><linearGradient id="f" x1="63.061" x2="63.061" y1="52.123" y2="90.217" gradientUnits="userSpaceOnUse"><stop stopColor="white"/><stop offset="1" stopColor="#FFE9B9"/></linearGradient><linearGradient id="g" x1="56.107" x2="56.107" y1="58.362" y2="70.185" gradientUnits="userSpaceOnUse"><stop stopColor="white"/><stop offset="1" stopColor="#FFE9B9"/></linearGradient><clipPath id="a"/></defs></svg>
